X:0194
T:A Rock & a wi Pickle Tow.
N:early 18th century
M:6/8
L:1/8
Q:3/8=120
I: :: ::
Z:Jack Campin * www.campin.me.uk * 2009
K:G
D|GAG ABd|(e/f/g)B A2d|BGA  B2A|BGG G2:|
g|eeg eeg| e>fg    edB|ded  ded|dgd dB
G|cBc dBd| egB     A2d|BGA TB2A|BGG G2:|

